X: 28340
T: Muiñeira Da Camposa
R: jig
M: 6/8
K: Gmajor
|:ded|BGB ABA|GBd gfe|fed cBA|BAG ded|
BGB ABA|GBd gde|fed cBA|G3:|
|:GcA|B2G GcA|B2G GcA|BGA FGA|BAG GcA|
B2G GcA|B2G GcA|BGA FAF|G3 GcA||
|:BGA FcA|BGA FcA|BGA fGA|BAG GcA|
BGA FcA|BGA FcA|BGA FAF|G3||

